X: 6495
T: Cat On The Mushrooms
R: reel
M: 4/4
K: Gmajor
B2AG d2 B2|AG (3FED E2 GE|DB,A,G, A,B,DE|DEGD EGAc|
B2AG d2 B2|AG (3FED E2 GE|DB,A,G, A,B,DE|DEGA G4:|
|:A6 GA|B2 AG E2 GE|DBAG DEDE|DEGD EGAB|
A6 GA|B2 AG E2 GE|DBAG DEDE|DEGD G4:|

